X:1
T:Gratitude, LM
T:Paul Bost, 1837
T:Gratitude, LM
T:Public Domain
C:Paul Bost, 1837
Z:Public Domain
%%score ( 1 2 ) ( 3 4 )
L:1/8
M:3/4
K:Eb
V:1 treble 
V:2 treble 
V:3 bass 
V:4 bass 
V:1
 [GB]2 | (B2 e2) [EG]2 | ([EG]2 [GB]2) [EG]2 | ([DF]2 [FA]2) [B,D]2 | [B,E]4 [GB]2 | %5
 (B2 e2) [EG]2 | ([EG]2 [GB]2) [EG]2 | ([DF]2 [FA]2) [B,D]2 | [B,E]4 [EG]2 | ([FA]2 [GB]2) [FA]2 | %10
 ([EG]2 [B,F]2) [EG]2 | ([FA]2 [GB]2) [FA]2 | [EG]4 [GB]2 | ([GB]3 [FA]) [EG]2 | %14
 ([EG]3 [B,F]) [B,E]2 | ([DF]2 [FA]2) [B,D]2 | [B,E]4 |] %17
V:2
 x2 | G4 x2 | x6 | x6 | x6 | G4 x2 | x6 | x6 | x6 | x6 | x6 | x6 | x6 | x6 | x6 | x6 | x4 |] %17
V:3
 [E,E]2 | [E,E]4 [E,B,]2 | [E,B,]4 [E,B,]2 | [B,,B,]4 [B,,A,]2 | [E,G,]4 [E,E]2 | [E,E]4 [E,B,]2 | %6
 [E,B,]4 [E,B,]2 | [B,,B,]4 [B,,A,]2 | [E,G,]4 [E,B,]2 | [B,,B,]4 [B,,B,]2 | (E,2 D,2) [E,B,]2 | %11
 [B,,B,]4 [B,,B,]2 | [E,B,]4 [E,E]2 | [E,E]4 [E,B,]2 | (B,3 A,) [E,G,]2 | [B,,B,]4 [B,,A,]2 | %16
 [E,G,]4 |] %17
V:4
 x2 | x6 | x6 | x6 | x6 | x6 | x6 | x6 | x6 | x6 | B,4 x2 | x6 | x6 | x6 | E,4 x2 | x6 | x4 |] %17

